dist/img/sprites/hRocket.svg

<svg width="32" height="32" viewBox="0 0 32 32" fill="none" xmlns="http://www.w3.org/2000/svg">
<g clip-path="url(#clip0_730_5294)">
<path d="M25.3208 25.32C25.8808 24.38 26.0908 23.59 26.0308 22.77C25.9508 21.8 25.6908 20.81 25.2408 19.75C25.0008 19.19 25.1508 18.85 25.4808 18.45C29.5308 13.68 31.7208 8.26999 31.9908 2.37999C32.0208 1.69999 31.8008 1.07999 31.3708 0.63999C30.9508 0.21999 30.3708 -0.0100098 29.7108 -0.0100098C29.6708 -0.0100098 29.6408 -0.0100098 29.6108 -0.0100098C26.7508 0.0899902 23.8608 0.72999 21.0308 1.88999C18.2208 3.03999 15.6008 4.67999 13.2308 6.76999C13.0308 6.93999 12.8508 6.97999 12.6008 6.87999C12.0508 6.66999 11.4508 6.45999 10.8608 6.27999C9.77084 5.95999 8.50084 5.71999 7.28084 6.36999L7.20084 6.40999C6.86084 6.58999 6.50084 6.77999 6.18084 6.99999C4.03084 8.43999 2.21084 10.24 0.390844 12.12C0.0708443 12.45 -0.0591557 12.9 0.0408443 13.35C0.150844 13.85 0.500844 14.25 0.980844 14.44C1.27084 14.55 1.58084 14.65 1.88084 14.74C2.02084 14.78 2.15084 14.82 2.29084 14.87L5.93084 16.04L5.55084 16.77C5.34084 17.18 5.13084 17.58 4.93084 17.98C4.37084 19.08 4.52084 19.96 5.39084 20.84L11.1208 26.58C12.0608 27.52 12.8908 27.66 14.0908 27.06C14.5308 26.84 14.9608 26.62 15.4008 26.39L15.9608 26.1L16.0408 26.32C16.0608 26.37 16.0708 26.41 16.0908 26.45L16.5208 27.8C16.8508 28.82 17.1708 29.83 17.5008 30.84C17.6908 31.42 18.0908 31.83 18.6008 31.95C19.1008 32.07 19.6408 31.89 20.0608 31.47C20.6708 30.85 21.4008 30.12 22.1108 29.36C23.1908 28.21 24.4108 26.86 25.3208 25.31V25.32ZM3.16084 13.36L1.87084 12.95L2.02084 12.8C2.28084 12.55 2.54084 12.3 2.80084 12.06C3.37084 11.51 3.91084 10.99 4.49084 10.49C5.41084 9.70999 6.39084 8.95999 7.35084 8.24999L7.39084 8.21999C8.15084 7.64999 9.04084 7.50999 10.0308 7.80999C10.3408 7.89999 10.6508 7.99999 10.9808 8.08999L11.5708 8.25999L11.3908 8.48999C11.3508 8.53999 11.3208 8.57999 11.2808 8.61999C9.71084 10.28 8.28084 12.14 7.03084 14.16C6.91084 14.35 6.78084 14.44 6.61084 14.44C6.54084 14.44 6.46084 14.43 6.37084 14.4C5.31084 14.05 4.25084 13.71 3.14084 13.35L3.16084 13.36ZM14.9408 24.7C14.6508 24.86 14.3708 25 14.0708 25.15C13.7908 25.29 13.5108 25.44 13.2308 25.59C13.1008 25.66 12.9808 25.7 12.8608 25.7C12.6908 25.7 12.5408 25.62 12.3908 25.47C10.4408 23.51 8.48084 21.55 6.52084 19.59C6.28084 19.35 6.24084 19.11 6.38084 18.81C8.67084 14.13 11.4308 10.47 14.8308 7.61999C18.4008 4.61999 22.4608 2.71999 26.9008 1.96999C27.5708 1.85999 28.2608 1.79999 28.9308 1.74999C29.1408 1.72999 29.3508 1.71999 29.5608 1.69999C29.8508 1.66999 30.0208 1.70999 30.1408 1.82999C30.2908 1.97999 30.3008 2.21999 30.2908 2.43999C30.2908 2.52999 30.2808 2.61999 30.2708 2.70999V2.83999C29.9008 7.92999 28.0208 12.61 24.7008 16.75C22.1808 19.89 18.9808 22.49 14.9308 24.7H14.9408ZM20.0408 29.07C19.8208 29.3 19.6008 29.52 19.3808 29.75C19.3408 29.79 19.3008 29.82 19.2508 29.87L19.0208 30.07L18.6108 28.8C18.2508 27.68 17.9108 26.59 17.5508 25.51C17.4508 25.21 17.6308 25.09 17.7608 25.01C19.6908 23.8 21.3608 22.54 22.9008 21.15L23.6808 20.43L23.8208 20.82C24.0908 21.56 24.3708 22.32 24.3108 23.13C24.2708 23.61 24.0908 24.12 23.8208 24.5C23.1008 25.52 22.3308 26.52 21.5308 27.47C21.0608 28.03 20.5408 28.56 20.0408 29.08V29.07Z" fill="#4B8125"/>
<path d="M1.36021 29.71C1.35021 29.99 1.43021 30.23 1.60021 30.4C1.78021 30.58 2.04021 30.67 2.34021 30.65C2.79021 30.63 3.25021 30.59 3.71021 30.53C5.75021 30.28 7.50021 29.73 9.07021 28.85C9.32021 28.71 9.49021 28.51 9.55021 28.28C9.61021 28.07 9.58021 27.85 9.47021 27.65C9.24021 27.24 8.75021 27.12 8.26021 27.37L8.10021 27.45C7.75021 27.63 7.38021 27.81 7.01021 27.96C5.88021 28.42 4.66021 28.72 3.29021 28.87L3.13021 28.89L3.15021 28.73C3.17021 28.62 3.18021 28.51 3.20021 28.4C3.23021 28.16 3.26021 27.93 3.31021 27.7C3.60021 26.18 4.04021 24.88 4.68021 23.73C4.84021 23.45 4.85021 23.14 4.71021 22.88C4.58021 22.63 4.34021 22.48 4.05021 22.45C4.02021 22.45 3.98021 22.45 3.95021 22.45C3.62021 22.45 3.36021 22.62 3.17021 22.98C2.09021 24.96 1.51021 27.16 1.40021 29.72L1.36021 29.71Z" fill="#4B8125"/>
</g>
<defs>
<clipPath id="clip0_730_5294">
<rect width="32" height="32" fill="white"/>
</clipPath>
</defs>
</svg>

<svg width="32" height="32" viewBox="0 0 32 32" fill="none" xmlns="http://www.w3.org/2000/svg"><g clip-path="url(#clip0_730_5294)" fill="#4B8125"><path d="M25.32 25.32c.56-.94.77-1.73.71-2.55-.08-.97-.34-1.96-.79-3.02-.24-.56-.09-.9.24-1.3 4.05-4.77 6.24-10.18 6.51-16.07.03-.68-.19-1.3-.62-1.74-.42-.42-1-.65-1.66-.65h-.1c-2.86.1-5.75.74-8.58 1.9-2.81 1.15-5.43 2.79-7.8 4.88-.2.17-.38.21-.63.11-.55-.21-1.15-.42-1.74-.6-1.09-.32-2.36-.56-3.58.09l-.08.04c-.34.18-.7.37-1.02.59-2.15 1.44-3.97 3.24-5.79 5.12-.32.33-.45.78-.35 1.23.11.5.46.9.94 1.09.29.11.6.21.9.3.14.04.27.08.41.13l3.64 1.17-.38.73c-.21.41-.42.81-.62 1.21-.56 1.1-.41 1.98.46 2.86l5.73 5.74c.94.94 1.77 1.08 2.97.48.44-.22.87-.44 1.31-.67l.56-.29.08.22c.02.05.03.09.05.13l.43 1.35c.33 1.02.65 2.03.98 3.04.19.58.59.99 1.1 1.11.5.12 1.04-.06 1.46-.48.61-.62 1.34-1.35 2.05-2.11 1.08-1.15 2.3-2.5 3.21-4.05v.01zM3.16 13.36l-1.29-.41.15-.15c.26-.25.52-.5.78-.74.57-.55 1.11-1.07 1.69-1.57.92-.78 1.9-1.53 2.86-2.24l.04-.03c.76-.57 1.65-.71 2.64-.41.31.09.62.19.95.28l.59.17-.18.23c-.04.05-.07.09-.11.13-1.57 1.66-3 3.52-4.25 5.54-.12.19-.25.28-.42.28a.75.75 0 01-.24-.04c-1.06-.35-2.12-.69-3.23-1.05l.02.01zM14.94 24.7c-.29.16-.57.3-.87.45-.28.14-.56.29-.84.44-.13.07-.25.11-.37.11-.17 0-.32-.08-.47-.23-1.95-1.96-3.91-3.92-5.87-5.88-.24-.24-.28-.48-.14-.78 2.29-4.68 5.05-8.34 8.45-11.19 3.57-3 7.63-4.9 12.07-5.65.67-.11 1.36-.17 2.03-.22.21-.02.42-.03.63-.05.29-.03.46.01.58.13.15.15.16.39.15.61 0 .09-.01.18-.02.27v.13c-.37 5.09-2.25 9.77-5.57 13.91-2.52 3.14-5.72 5.74-9.77 7.95h.01zm5.1 4.37c-.22.23-.44.45-.66.68-.04.04-.08.07-.13.12l-.23.2-.41-1.27c-.36-1.12-.7-2.21-1.06-3.29-.1-.3.08-.42.21-.5 1.93-1.21 3.6-2.47 5.14-3.86l.78-.72.14.39c.27.74.55 1.5.49 2.31-.04.48-.22.99-.49 1.37-.72 1.02-1.49 2.02-2.29 2.97-.47.56-.99 1.09-1.49 1.61v-.01zm-18.68.64c-.01.28.07.52.24.69.18.18.44.27.74.25.45-.02.91-.06 1.37-.12 2.04-.25 3.79-.8 5.36-1.68.25-.14.42-.34.48-.57.06-.21.03-.43-.08-.63-.23-.41-.72-.53-1.21-.28l-.16.08c-.35.18-.72.36-1.09.51-1.13.46-2.35.76-3.72.91l-.16.02.02-.16c.02-.11.03-.22.05-.33.03-.24.06-.47.11-.7.29-1.52.73-2.82 1.37-3.97.16-.28.17-.59.03-.85a.812.812 0 00-.66-.43h-.1c-.33 0-.59.17-.78.53-1.08 1.98-1.66 4.18-1.77 6.74l-.04-.01z"/></g><defs><clipPath id="clip0_730_5294"><path fill="#fff" d="M0 0h32v32H0z"/></clipPath></defs></svg>
